X:1
T:Engelska
T:efter Alfred Petersson, Nttraby, Blekinge (SvL, Band 18, nr 298)
O:Nttraby, Blekinge
S:Svenska Ltar
N:Svenska Ltar, Band 18 nr 298
R:Engelska
C:Alfred Petersson
M:2/4
L:1/16
Q:1/4=80
Z:Konverterad till abc-format av  Olle Paulsson 05-01-03
K:A
e(aga) e(aga)|e(aga) f2d2|(df)ff (df)ff|(df)af (f2e2)|
e(aga) e(aga)|e(aga) f2d2|(df)ff (df)ff|(de)fg a(ed)B|(B2A2) A4:|
|:(ce)ee (ce)ee|(ce)ee (fedc)|(df)ff (df)ff|(df)af (f2e2)|
(ce)ee (ce)ee|(ce)ee (fedc)|(de)fg a(ed)B|(B2A2) A4:|
